X: 1528
T: the Girl With the Laughing Eyes
T: an cailin leis na miog.suile.
R: reel
B: O'Neill's 1850 "Music of Ireland" #1528
O: F.O'Neill
Z: transcribed by John B. Walsh, walsh@math.ubc.ca 8/23/96
Z: Compacted via repeats and multiple endings [JC]
M: C|
L: 1/8
K: D
((3ABc) \
|: d2 (FG) Adef | gfed fdBc | d2(FG) A2 [1 (AB) | AGEG FDDA :|[2(ag) | faef d2 |] ((3dfg) | afbf afdf |
| gfed cd ((3efg) | afbf afdf | abag fd ((3efg) || afbf afdf | gfed fdBc | d2FG A2(ag) | faef d2 |]
